X:3581
T:Crowley's #1
R:reel
D:Cherish The Ladies: New Day Dawning
Z:Devin McCabe
M:C|
L:1/8
K:D
~A3d B2dB|AD (3FED AD (3FED|~A3d BABc|1dfeg fedB:|2dfeg fede|
!:~f3a ~g2fg|eA (3cBA eA (3cBA|~f3a ~g2fg|1afge fede:|2afge fedB||


